X:5805
T:Scant of Money
O:england
M:2/2
L:1/8
S:Armitt MS
N:No time signature give
K:E minor
g|fdAd fd f/2g/2a/2f/2|fdAd ec e/2f/2g/2e/2|fdAd fd f/2g/2a/2f/2|gbfa ec
e/2f/2g/2e/2:||:fd f/2g/2a/2f/2 fd f/2g/2a/2f/2| ec e/2f/2g/2e/2 ec e/2
f/2g/2e/2|fd f/2g/2a/2f/2 fd f/2g/2a/2f/2|gbfa ec e/2f/2g/2e/2||


